X: 866
T: Whiskey You're the Devil!   #2
R: hornpipe
%S: s:2 b:9(5+4)
B: Francis O'Neill: "The Dance Music of Ireland" (1907) #866
Z: Frank Nordberg - http://www.musicaviva.com
F: http://www.musicaviva.com/abc/tunes/ireland/oneill-1001/0866/oneill-1001-0866-1.abc
M: C|
L: 1/8
K: A
E2 \
"^A"|: A>cB>c A>FF>E | A>ce>a f2(3(efg) | a>gf>e f>ec>A |[1,3 B>cB>A F3E :|[2,4 B2A2 "^fine"A2 :|
"^B"|: c>d | e>ag>a f>ec>e | e>ag>a f2(3(efg) | a>gf>e f>ec>A | B>cB>A F2"^->A2"E2 |]
